X:50
T:Legacy. Le4.050, The
B:L.Leadley MS#4 c1850
Z:Village Music Project, 2016 Steve Mansfield
M:6/8
L:1/8
Q:3/8=90
K:A
A2A AEC | e2e ecA | A2B cBc | F2G A3 :|
|: A(ce) a2a | gfe fec | Ace a2a | gfe f2g |
a2a gec | f2f (ec)A | A2B (cB)c | F2G A3 :|

